public/svg/sketch.svg

<svg xmlns="http://www.w3.org/2000/svg" width="56" height="56" viewBox="0 0 56 56" fill="none">
<rect width="56" height="56" fill="#C4C4C4" fill-opacity="0.01"/>
<path fill-rule="evenodd" clip-rule="evenodd" d="M16.1278 23.2949L27.9586 46.9577L8.07324 23.2949H16.1278Z" fill="#EA6C00"/>
<path fill-rule="evenodd" clip-rule="evenodd" d="M39.7921 23.2949L27.9613 46.9577L47.8467 23.2949H39.7921Z" fill="#EA6C00"/>
<path fill-rule="evenodd" clip-rule="evenodd" d="M16.127 23.2949H39.7885L27.9577 46.9577L16.127 23.2949Z" fill="#FDAD00"/>
<path fill-rule="evenodd" clip-rule="evenodd" d="M27.9577 10.1802L16.7496 11.3908L16.127 23.2941L27.9577 10.1802Z" fill="#FDD231"/>
<path fill-rule="evenodd" clip-rule="evenodd" d="M27.9583 10.1802L39.1664 11.3908L39.7891 23.2941L27.9583 10.1802Z" fill="#FDD231"/>
<path fill-rule="evenodd" clip-rule="evenodd" d="M47.8467 23.2948L39.1694 11.3916L39.7921 23.2948H47.8467Z" fill="#FDAD00"/>
<path fill-rule="evenodd" clip-rule="evenodd" d="M8.07324 23.2948L16.7505 11.3916L16.1278 23.2948H8.07324Z" fill="#FDAD00"/>
<path fill-rule="evenodd" clip-rule="evenodd" d="M27.9577 10.1802L16.127 23.2941H39.7885L27.9577 10.1802Z" fill="#FEEEB7"/>
</svg>

<svg xmlns="http://www.w3.org/2000/svg" width="56" height="56" fill="none" xmlns:v="https://vecta.io/nano"><path fill="#c4c4c4" fill-opacity=".01" d="M0 0h56v56H0z"/><g fill-rule="evenodd"><g fill="#ea6c00"><path d="M16.128 23.295l11.831 23.663L8.073 23.295h8.055z"/><path d="M39.792 23.295L27.961 46.958l19.885-23.663h-8.055z"/></g><path d="M16.127 23.295h23.662L27.958 46.958 16.127 23.295z" fill="#fdad00"/><g fill="#fdd231"><path d="M27.958 10.18L16.75 11.391l-.623 11.903L27.958 10.18z"/><path d="M27.958 10.18l11.208 1.211.623 11.903L27.958 10.18z"/></g><path d="M47.847 23.295L39.17 11.392l.623 11.903h8.055zm-39.774 0l8.677-11.903-.623 11.903H8.073z" fill="#fdad00"/><path d="M27.958 10.18L16.127 23.294h23.662L27.958 10.18z" fill="#feeeb7"/></g></svg>
